X:1
T:[ID 9-48a]
T:[ID 9-48a]
T:Bezeichnung standardisiert: Anglaise oder Walzer Angeloise oder Waltzer In dieser Quelle auch als: Waltzer In dieser Quelle auch als: Schwabisch \"Ahnlich in dieser Quelle: ID 8v-4a; \"Ahnlich in anderer Quelle: 18. Dantz nach Johann Friedrich Drey\sser, 1720 (Anm. S. Wascher);
T:Urheber unbekannt Erstbeleg: 1720 (Datum in der schriftlichen Quelle) Datum in der hier transkribierten schriftlichen Quelle: 1796
C:Urheber unbekannt
C:Erstbeleg: 1720 (Datum in der schriftlichen Quelle)
C:Datum in der hier transkribierten schriftlichen Quelle: 1796
L:1/8
M:3/8
K:D
V:1 treble 
V:1
 DFA | d2 f | g2 e/c/ | d/c/d/e/d | DFA | d2 f | g2 e/c/ | d3 :: cec | dfd | g2 e/c/ | d/c/d/e/d | %12
 cec | dfd | gb/g/e/c/ | d3 :| %16

